!!!COM: Palestrina, Giovanni Perluigi da
!!!OPR: Dies sanctificatus
!!!OTL: Agnus I
**kern	**kern	**kern	**kern
*Ibass	*Itenor	*Icalto	*Icant
!Bassus	!Tenor	!Altus	!Cantus
*clefF4	*clefGv2	*clefG2	*clefG2
*k[]	*k[]	*k[]	*k[]
*G:mix	*G:mix	*G:mix	*G:mix
*M4/2	*M4/2	*M4/2	*M4/2
=1	=1	=1	=1
0r	0r	1r	0dd
.	.	[1g	.
=2	=2	=2	=2
0r	1r	2g]	1dd
.	.	2g	.
.	[1g	4c	1ee
.	.	4d	.
.	.	4e	.
.	.	4f#	.
=3	=3	=3	=3
0r	2g]	2g	2dd
.	2g	2G	2b
.	4c	1A	1cc
.	4d	.	.
.	4e	.	.
.	4f#	.	.
=4	=4	=4	=4
0r	2g	2G	2.b
.	2G	1g	.
.	.	.	8a
.	.	.	8g
.	[1d	.	1a
.	.	2f#	.
=5	=5	=5	=5
0G	2d]	2g	1g
.	2d	4G	.
.	.	4A	.
.	4G	4B	2r
.	4A	4c	.
.	4B	2d	[2gg
.	4c	.	.
=6	=6	=6	=6
1G	2d	1B	2gg]
.	2.e	.	2gg
1A	.	1c	4cc
.	4d	.	4dd
.	2c	.	4ee
.	.	.	4ff#
=7	=7	=7	=7
2G	1B	2d	2gg
2E	.	1e	2g
1F	2r	.	1a
.	2A	2d	.
=8	=8	=8	=8
1E	2B	1e	2g
.	2c	.	1gg
2D	1d	1a	.
2D	.	.	2ff#
=9	=9	=9	=9
2E	2B	1r	2gg
2F	2A	.	4ff
.	.	.	4ee
1G	4B	1d	1dd
.	4A	.	.
.	4G	.	.
.	4A	.	.
=10	=10	=10	=10
2E	4B	2e	0r
.	4c	.	.
2D	2d	2f	.
4E	2G	1g	.
4D	.	.	.
4C	[2c	.	.
4D	.	.	.
=11	=11	=11	=11
4E	2c]	2e	1r
4F#	.	.	.
2G	2B	2d	.
2C	1c	4e	2r
.	.	4d	.
[2c	.	4c	2g
.	.	4d	.
=12	=12	=12	=12
2c]	2r	4e	2a
.	.	4f#	.
2B	2d	2g	2b
1A	2e	2c	2.cc
.	2f#	[2cc	.
.	.	.	4dd
=13	=13	=13	=13
1G	1g	2cc]	2ee
.	.	2b	2dd
1r	2e	2g	4cc
.	.	.	4b
.	2d	[2a	2dd
=14	=14	=14	=14
0r	1e	4a]	4cc
.	.	4g	4b
.	.	1g	4b
.	.	.	8a
.	.	.	8g
.	1d	.	2a
.	.	2f	[2dd
=15	=15	=15	=15
1A	1r	1e	2dd]
.	.	.	2cc
2B	2r	1r	2dd
2c	[2g	.	4cc
.	.	.	4b
=16	=16	=16	=16
1d	2g]	0r	2a
.	2f#	.	2a
2B	2g	.	2b
2A	2a	.	2cc
=17	=17	=17	=17
4B	1d	2r	1dd
4A	.	.	.
4G	.	1g	.
4A	.	.	.
4B	[1d	.	2b
4c	.	.	.
2d	.	2f#	2a
=18	=18	=18	=18
1.G	2d]	2g	4b
.	.	.	4a
.	1g	2e	4g
.	.	.	4a
.	.	2d	4b
.	.	.	4cc
2D	2f	[2a	[2dd
=19	=19	=19	=19
2A	2e	2a]	4dd]
.	.	.	4cc
2A	4d	2f	1cc
.	4c	.	.
1G	1d	2.g	.
.	.	.	2b
.	.	4f	.
=20	=20	=20	=20
1C	0c	1e	1cc
2.F	.	[1a	1r
4G	.	.	.
=21	=21	=21	=21
2A	2.c	1a]	0ee
2A	.	.	.
.	4d	.	.
1c	2e	1g	.
.	2e	.	.
=22	=22	=22	=22
1G	1g	1b-	1dd
1r	1d	[1a	1ff
=23	=23	=23	=23
0A	0r	2a]	1.ee
.	.	4g	.
.	.	4f	.
.	.	2e	.
.	.	2f#	4dd
.	.	.	4cc
=24	=24	=24	=24
1G	0r	1g	2b
.	.	.	2.ee
1B-	.	2f	.
.	.	.	4dd
.	.	4e	[2dd
.	.	4d	.
=25	=25	=25	=25
1A	0r	1e	2dd]
.	.	.	2cc
4D	.	1d	2b-
4E	.	.	.
4F	.	.	2a
4G	.	.	.
=26	=26	=26	=26
4A	0e	0r	2.cc
4B	.	.	.
1c	.	.	.
.	.	.	8b
.	.	.	8a
.	.	.	2g
4B	.	.	[2a
4A	.	.	.
=27	=27	=27	=27
1B	1d	2r	2a]
.	.	2d	2g#
[1A	1f	2c	1a
.	.	[2d	.
=28	=28	=28	=28
1A]	1e	2d]	1r
.	.	2c	.
1r	2d	2f	[1a
.	4c#	4e	.
.	4B	4d	.
=29	=29	=29	=29
2r	2c#	2e	1a]
2d	2d	2f	.
2d	2B	2d	1g
[2e	2c	[2g	.
=30	=30	=30	=30
2e]	1G	2g]	1b-
1d	.	2f	.
.	1A	1e	1a
2c#	.	.	.
=31	=31	=31	=31
1d	1r	0a	4f
.	.	.	4g
.	.	.	4a
.	.	.	4b
1A	[1e	.	2.cc
.	.	.	4dd
=32	=32	=32	=32
1c	1e]	1g	4ee
.	.	.	4ff
.	.	.	1gg
2G	1d	1b-	.
2B-	.	.	[2ff
=33	=33	=33	=33
2.F	1f	1a	4ff]
.	.	.	4ee
.	.	.	1dd
4G	.	.	.
1A	1e	2.a	.
.	.	.	2cc
.	.	4g	.
=34	=34	=34	=34
1D	4d	4f	2.ff
.	4e	4e	.
.	4f	4d	.
.	4g	4e	4ee
1r	2a	4f	2dd
.	.	4g	.
.	2A	[2a	2cc
=35	=35	=35	=35
0E	2.e	2a]	1b
.	.	4g	.
.	8d	4f#	.
.	8c	.	.
.	2B	1g	1r
.	2c	.	.
=36	=36	=36	=36
1D	2d	2f	0a
.	2.f	2d	.
1F	.	2c	.
.	4e	.	.
.	[2d	2d	.
=37	=37	=37	=37
1E	2d]	2e	1g
.	2c	1g	.
1D	2d	.	2b-
.	2A	2f	[2a
=38	=38	=38	=38
1C	2.c	1e	4a]
.	.	.	4g
.	.	.	1g
.	4B	.	.
1D	1A	1d	.
.	.	.	2f#
=39	=39	=39	=39
0G	0B	0d	0g
==	==	==	==
*-	*-	*-	*-
!!!CDT: 1525/^1526/-1594/2/2
!!!OCY: Italia
!!!AGN: Mass (Parody)
!!!AST: renaissance, vocal
!!!ASW: Motet 1563 (Palestrina)
!!!PWK: Masses, Book 6
!!!RNB: Cadence finals: D,A,C
!!!YOR: Le Opere Complete, v. 21, p. 1
!!!YOO: Rome, Italy: Fratelli Scalera
!!!END: 1992//
!!!EED: John Miller
!!!YEC: Copyright 2000, John Miller
!!!YEN: United States of America
!!!YEM: Rights to all derivative electronic formats reserved.
!!!YEM: Refer to licensing agreement for further details.
!!!YEM: This file must be accompanied by the licensing agreement.
!!!YEM: A copy of the licensing agreement may be found at http://www.music-cog.ohio-state.edu/HumdrumDatabases/Palestrina/license.txt
!!!EMD: converted to Humdrum by Bret Aarden
